X:1
T:Herr Wie Du, 87.87.887
T:Herr Wie Du, 87.87.887
T:Bartholomäus Helder (1585–1635)
T:Public Domain Courtesy of the Cyber Hymnal™
C:Bartholomäus Helder (1585–1635)
Z:Public Domain
Z:Courtesy of the Cyber Hymnal™
%%score 1 ( 2 3 )
L:1/8
M:6/4
K:Bb
V:1 treble 
V:2 bass 
V:3 bass 
V:1
|: [EG]4 | [DB]4 [DA]2 [B,G]4 [EG]2 | [DF]2 [CE]2 [A,D]4 [^Fd]4 | [DB]4 [DA]2 [CG]4 [EG]2 | %4
 [D^F]4 [DG]4 :| [EG]4 | [Gc]4 [Gc]2 [FA]4 [FA]2 | [DB]2 [Fc]2 [Fd]4 [Fd]4 | %8
 [Fc]4 [DB]2 [DA]4 [FB]2 | [EG]2 [EG]2 [D^F]4 [=FB]4 | [FA]4 [DG]2 [Ec]4 [DB]2 | [DA]4 [DG]8 |] %12
V:2
|: [C,G,]4 | [G,,G,]4 [D,F,]2 [E,G,]4 [E,B,]2 | [B,,B,]2 [C,G,]2 [D,^F,]4 [D,A,]4 | %3
 G,4 [^F,A,]2 [G,B,]4 [C,C]2 | [D,A,]4 [G,,=B,]4 :| [E,B,]4 | [C,E]4 [C,E]2 [F,C]4 [D,D]2 | %7
 [G,B,]2 [F,A,]2 [B,,B,]4 [B,,B,]4 | [F,A,]4 G,2 [D,F,]4 [B,,D]2 | [E,B,]2 [C,C]2 [D,A,]4 [B,,D]4 | %10
 [F,C]4 [G,B,]2 G,4 [G,,G,]2 | z2 ^F,2 [G,,=B,]8 |] %12
V:3
|: x4 | x12 | x12 | G,4 x8 | x8 :| x4 | x12 | x12 | x4 G,2 x6 | x12 | x6 G,4 x2 | D,4 x8 |] %12

